src/images/svg/markets/tight-spread-new.svg

<svg width="49" height="48" viewBox="0 0 49 48" fill="none" xmlns="http://www.w3.org/2000/svg">
<path d="M30.6133 16H4.61328C3.55242 16 2.535 16.4214 1.78485 17.1716C1.03471 17.9217 0.613281 18.9391 0.613281 20L0.613281 35.68L7.79328 29.76L13.7233 35.59L22.4233 26.89H16.9433V24H27.3533V34.4H24.4533V29L13.7433 39.67L7.80328 33.84L0.613281 39.76V44C0.613281 45.0609 1.03471 46.0783 1.78485 46.8284C2.535 47.5786 3.55242 48 4.61328 48H30.6133C31.6741 48 32.6916 47.5786 33.4417 46.8284C34.1919 46.0783 34.6133 45.0609 34.6133 44V20C34.6133 18.9391 34.1919 17.9217 33.4417 17.1716C32.6916 16.4214 31.6741 16 30.6133 16Z" fill="#85ACB0"/>
<g style="mix-blend-mode:multiply">
<path d="M44.6133 0H28.6133C26.4041 0 24.6133 1.79086 24.6133 4V20C24.6133 22.2091 26.4041 24 28.6133 24H44.6133C46.8224 24 48.6133 22.2091 48.6133 20V4C48.6133 1.79086 46.8224 0 44.6133 0Z" fill="#FF444F"/>
</g>
<path d="M35.0332 8.45996C35.0332 8.0644 34.9159 7.67772 34.6961 7.34882C34.4764 7.01992 34.164 6.76358 33.7986 6.6122C33.4331 6.46083 33.031 6.42122 32.643 6.49839C32.2551 6.57556 31.8987 6.76604 31.619 7.04575C31.3393 7.32545 31.1488 7.68182 31.0716 8.06978C30.9945 8.45774 31.0341 8.85988 31.1854 9.22533C31.3368 9.59078 31.5932 9.90314 31.9221 10.1229C32.251 10.3427 32.6376 10.46 33.0332 10.46C33.5636 10.46 34.0723 10.2492 34.4474 9.87417C34.8225 9.4991 35.0332 8.99039 35.0332 8.45996Z" fill="white"/>
<path d="M38.7732 6.5L32.0332 17.5H34.3332L41.0632 6.5H38.7732Z" fill="white"/>
<path d="M40.1523 13.5801C39.7568 13.5801 39.3701 13.6974 39.0412 13.9171C38.7123 14.1369 38.456 14.4493 38.3046 14.8147C38.1532 15.1802 38.1136 15.5823 38.1908 15.9703C38.2679 16.3582 38.4584 16.7146 38.7381 16.9943C39.0178 17.274 39.3742 17.4645 39.7622 17.5416C40.1501 17.6188 40.5523 17.5792 40.9177 17.4278C41.2832 17.2765 41.5955 17.0201 41.8153 16.6912C42.035 16.3623 42.1523 15.9756 42.1523 15.5801C42.1523 15.0496 41.9416 14.5409 41.5666 14.1659C41.1915 13.7908 40.6828 13.5801 40.1523 13.5801Z" fill="white"/>
</svg>

<svg width="49" height="48" fill="none" xmlns="http://www.w3.org/2000/svg"><path d="M30.613 16h-26a4 4 0 0 0-4 4v15.68l7.18-5.92 5.93 5.83 8.7-8.7h-5.48V24h10.41v10.4h-2.9V29l-10.71 10.67-5.94-5.83-7.19 5.92V44a4 4 0 0 0 4 4h26a4 4 0 0 0 4-4V20a4 4 0 0 0-4-4Z" fill="#85ACB0"/><path d="M44.613 0h-16a4 4 0 0 0-4 4v16a4 4 0 0 0 4 4h16a4 4 0 0 0 4-4V4a4 4 0 0 0-4-4Z" fill="#FF444F" style="mix-blend-mode:multiply"/><path d="M35.033 8.46a2 2 0 1 0-4 0 2 2 0 0 0 4 0ZM38.773 6.5l-6.74 11h2.3l6.73-11h-2.29ZM40.152 13.58a2 2 0 1 0 0 4.001 2 2 0 0 0 0-4Z" fill="#fff"/></svg>
